img/vector-2.svg

<svg fill="none" height="44" viewBox="0 0 128 44" width="128" xmlns="http://www.w3.org/2000/svg"><path d="m48.7811 41.2541-44.87343-23.4833c-2.76212-1.4454-3.774023-4.9012-2.22794-7.6087 1.29053-2.25991 3.9877-3.29974 6.45969-2.49035l51.17348 16.75535c6.1585 2.0164 12.8863 1.2214 18.4011-2.1744l34.012-20.94302c3.66-2.254044 8.465-.893372 10.414 2.94923l5.251 10.35129-59.2083 27.1549c-6.1951 2.8413-13.3562 2.6527-19.4016-.511z" fill="#403add"/></svg>

<svg width="128" height="44" viewBox="0 0 128 44" fill="none" xmlns="http://www.w3.org/2000/svg">
<path d="M48.7811 41.2541L3.90767 17.7708C1.14555 16.3254 0.133647 12.8696 1.67973 10.1621C2.97026 7.90219 5.66743 6.86236 8.13942 7.67175L59.3129 24.4271C65.4714 26.4435 72.1992 25.6485 77.714 22.2527L111.726 1.30968C115.386 -0.944364 120.191 0.416308 122.14 4.25891L127.391 14.6102L68.1827 41.7651C61.9876 44.6064 54.8265 44.4178 48.7811 41.2541Z" fill="#403ADD"/>
</svg>
